src/components/icons/StoreFrontIcon.svg

<svg width="24" height="24" viewBox="0 0 24 24" fill="none" xmlns="http://www.w3.org/2000/svg">
<g clip-path="url(#clip0)">
<path d="M23.7395 8.10694L21.4318 0.491531C21.3434 0.199594 21.0743 0 20.7693 0H3.23083C2.92582 0 2.65671 0.199594 2.5683 0.491531L0.260601 8.10694C0.240866 8.17205 0.230835 8.23969 0.230835 8.3077C0.230835 9.69933 1.05673 10.901 2.24374 11.4503C2.25823 11.457 2.27276 11.4636 2.28733 11.4701C2.32737 11.4879 2.36773 11.505 2.40851 11.5214C2.42721 11.5289 2.44587 11.5364 2.46471 11.5436C2.48876 11.5527 2.51285 11.5617 2.53713 11.5703C2.56812 11.5813 2.59929 11.5919 2.63069 11.602C2.65577 11.6101 2.68099 11.6178 2.70635 11.6253C2.73391 11.6335 2.76166 11.6415 2.78946 11.649C2.80783 11.654 2.82612 11.6592 2.84463 11.6638C2.88654 11.6744 2.92882 11.6841 2.97133 11.6931C2.98812 11.6967 3.00494 11.7001 3.02182 11.7034C3.06715 11.7124 3.11266 11.7207 3.15855 11.7279C3.16807 11.7293 3.17773 11.7305 3.18724 11.732C3.23018 11.7383 3.27335 11.7437 3.3168 11.7485C3.32824 11.7498 3.33968 11.7511 3.35121 11.7523C3.40071 11.7571 3.45059 11.7609 3.50069 11.7637C3.51166 11.7643 3.52268 11.7647 3.53369 11.7652C3.58629 11.7676 3.63912 11.7692 3.69237 11.7692C4.08115 11.7692 4.45521 11.7048 4.80434 11.586C4.96305 11.532 5.11662 11.4669 5.26409 11.3914C5.29357 11.3763 5.32282 11.3608 5.35184 11.3449C5.4678 11.2813 5.57984 11.2112 5.68727 11.1352C5.71413 11.1161 5.74071 11.0968 5.76701 11.077C6.02998 10.8795 6.26402 10.6454 6.46151 10.3824C6.65904 10.6454 6.89308 10.8795 7.15605 11.077C7.18235 11.0967 7.20893 11.1161 7.23579 11.1352C7.34327 11.2112 7.45526 11.2813 7.57123 11.3449C7.60019 11.3609 7.62949 11.3763 7.65898 11.3914C7.80644 11.4669 7.96005 11.5321 8.11873 11.586C8.46799 11.7048 8.84201 11.7692 9.23079 11.7692C9.61957 11.7692 9.99363 11.7048 10.3428 11.586C10.5015 11.532 10.655 11.4669 10.8025 11.3914C10.832 11.3763 10.8612 11.3608 10.8903 11.3449C11.0062 11.2813 11.1183 11.2112 11.2257 11.1352C11.2526 11.1161 11.2791 11.0968 11.3054 11.077C11.5684 10.8795 11.8024 10.6454 11.9999 10.3824C12.1975 10.6454 12.4315 10.8795 12.6944 11.077C12.7207 11.0967 12.7473 11.1161 12.7742 11.1352C12.8816 11.2112 12.9936 11.2813 13.1096 11.3449C13.1386 11.3609 13.1679 11.3763 13.1973 11.3914C13.3448 11.4669 13.4984 11.5321 13.6571 11.586C14.0064 11.7048 14.3804 11.7692 14.7692 11.7692C15.1579 11.7692 15.532 11.7048 15.8811 11.586C16.0399 11.532 16.1934 11.4669 16.3409 11.3914C16.3704 11.3763 16.3996 11.3608 16.4286 11.3449C16.5446 11.2813 16.6566 11.2112 16.7641 11.1352C16.7909 11.1161 16.8175 11.0968 16.8438 11.077C17.1068 10.8795 17.3408 10.6454 17.5383 10.3824C17.7358 10.6454 17.9699 10.8795 18.2329 11.077C18.2591 11.0967 18.2857 11.1161 18.3126 11.1352C18.4201 11.2112 18.5321 11.2813 18.648 11.3449C18.677 11.3609 18.7063 11.3763 18.7358 11.3914C18.8832 11.4669 19.0368 11.5321 19.1955 11.586C19.5448 11.7048 19.9188 11.7692 20.3076 11.7692C20.3608 11.7692 20.4137 11.7676 20.4663 11.7652C20.4773 11.7647 20.4883 11.7643 20.4993 11.7637C20.5494 11.7609 20.5993 11.7571 20.6488 11.7523C20.6603 11.7511 20.6717 11.7498 20.6832 11.7485C20.7267 11.7438 20.7699 11.7383 20.8128 11.732C20.8224 11.7306 20.832 11.7295 20.8415 11.7279C20.8874 11.7208 20.9329 11.7124 20.9782 11.7035C20.9951 11.7001 21.0119 11.6967 21.0287 11.6932C21.0712 11.6841 21.1135 11.6745 21.1554 11.6639C21.1739 11.6592 21.1922 11.654 21.2106 11.649C21.2384 11.6415 21.2661 11.6336 21.2937 11.6254C21.3191 11.6179 21.3442 11.6101 21.3694 11.602C21.4008 11.5919 21.4319 11.5813 21.4629 11.5703C21.4872 11.5617 21.5113 11.5528 21.5353 11.5436C21.5542 11.5364 21.5728 11.529 21.5915 11.5214C21.6323 11.505 21.6727 11.488 21.7127 11.4701C21.7273 11.4636 21.7418 11.457 21.7563 11.4504C22.9432 10.901 23.7691 9.69933 23.7691 8.3077C23.7693 8.23964 23.7593 8.17205 23.7395 8.10694Z" fill="#1B479E"/>
<path d="M10.3847 17.3077H6.23083V24H10.3847V17.3077Z" fill="#1B479E"/>
<path d="M17.7692 14.5385H14.5385V16.8462H17.7692V14.5385Z" fill="#1B479E"/>
<path d="M20.3077 13.1539C19.5442 13.1539 18.7825 12.9706 18.1052 12.624C17.909 12.5236 17.7195 12.4094 17.5385 12.2828C17.3574 12.4094 17.1679 12.5237 16.9718 12.624C16.2945 12.9706 15.5328 13.1539 14.7692 13.1539H18.4615C18.8439 13.1539 19.1538 13.4639 19.1538 13.8462V17.5385C19.1538 17.9208 18.8439 18.2308 18.4615 18.2308H13.8462C13.4638 18.2308 13.1539 17.9208 13.1539 17.5385V13.8462C13.1539 13.4638 13.4639 13.1539 13.8462 13.1539H14.7692C14.0057 13.1539 13.244 12.9706 12.5667 12.624C12.3705 12.5236 12.181 12.4094 12 12.2828C11.8189 12.4094 11.6295 12.5237 11.4333 12.624C10.756 12.9706 9.99437 13.1539 9.23078 13.1539C8.46719 13.1539 7.70556 12.9706 7.02822 12.624C6.83205 12.5236 6.64258 12.4094 6.46154 12.2828C6.28047 12.4094 6.09104 12.5237 5.89487 12.624C5.21753 12.9706 4.4559 13.1539 3.69231 13.1539C3.12611 13.1539 2.58245 13.0559 2.0769 12.8766V23.3077C2.0769 23.6901 2.38689 24 2.7692 24H4.84614V16.6154C4.84614 16.2331 5.15612 15.9231 5.53844 15.9231H11.0769C11.4593 15.9231 11.7692 16.2331 11.7692 16.6154V24H21.2307C21.6131 24 21.923 23.6901 21.923 23.3077V12.8767C21.4176 13.0559 20.8739 13.1539 20.3077 13.1539Z" fill="#0D3074"/>
</g>
<defs>
<clipPath id="clip0">
<rect width="24" height="24" fill="white"/>
</clipPath>
</defs>
</svg>

<svg width="24" height="24" fill="none" xmlns="http://www.w3.org/2000/svg"><g clip-path="url(#clip0)"><path d="M23.74 8.107L21.431.492A.692.692 0 0020.769 0H3.231c-.305 0-.574.2-.663.492L.261 8.107a.692.692 0 00-.03.2 3.465 3.465 0 002.178 3.214l.056.023a3.62 3.62 0 00.324.105l.056.015a3.328 3.328 0 00.314.064l.028.004a3.663 3.663 0 00.314.032l.033.001a3.446 3.446 0 002.928-1.383 3.491 3.491 0 001.657 1.204 3.447 3.447 0 002.224 0 3.442 3.442 0 00.962-.509 3.49 3.49 0 00.695-.695 3.494 3.494 0 001.657 1.204 3.447 3.447 0 002.224 0 3.438 3.438 0 00.963-.509 3.49 3.49 0 00.694-.695 3.49 3.49 0 001.657 1.204 3.447 3.447 0 001.271.18l.033-.002.15-.012a3.422 3.422 0 00.164-.02l.029-.004a3.424 3.424 0 00.313-.064l.056-.015a3.417 3.417 0 00.545-.199 3.466 3.466 0 002.013-3.142.683.683 0 00-.03-.201zM10.385 17.308H6.23V24h4.154v-6.692zM17.77 14.539h-3.231v2.307h3.23V14.54z" fill="#1B479E"/><path d="M20.308 13.154a4.857 4.857 0 01-2.77-.871 4.824 4.824 0 01-2.769.87h3.693c.382 0 .692.31.692.693v3.692c0 .383-.31.693-.692.693h-4.616a.692.692 0 01-.692-.693v-3.692c0-.382.31-.692.692-.692h.923A4.857 4.857 0 0112 12.283a4.816 4.816 0 01-2.77.87 4.857 4.857 0 01-2.768-.87 4.816 4.816 0 01-2.77.87c-.566 0-1.11-.097-1.615-.276v10.43c0 .383.31.693.692.693h2.077v-7.385c0-.382.31-.692.692-.692h5.539c.382 0 .692.31.692.692V24h9.462c.382 0 .692-.31.692-.692V12.877c-.505.179-1.05.277-1.615.277z" fill="#0D3074"/></g><defs><clipPath id="clip0"><path fill="#fff" d="M0 0h24v24H0z"/></clipPath></defs></svg>
